X:4474
L:1/16
M:2/4
K:F
 c2 | (fcAc) (fcAc) | (gc=Bc) (gcBc) | (afbg) (c'ad'c') | (bagf) (fedc) | fcAc fcAc | gc=Bc gcBc | 
 (afbg) (agfe) | f2[Af]2[Af]2 :: ab | (c'=bc'a) (fc'd'c') | (bagf) (efga) | babg fac'b | 
 agfe f2g2 |{b} agab c'ac'a |{c'} babc' d'bd'b | ac'af gbge | f2[Af]2[Af]2 :|

